shader_type canvas_item;

void vertex() {
	// Called for every vertex the material is visible on.
}

void fragment() {
	// Called for every pixel the material is visible on.
	vec3 color = vec3(1.0, 0.3, 0.0);
	float alpha = abs(sin(TIME * 1.0 * PI)) * 0.2 + 0.1;
	
	COLOR = vec4(color, alpha);
}

//void light() {
	// Called for every pixel for every light affecting the CanvasItem.
	// Uncomment to replace the default light processing function with this one.
//}
